X:1
T:Title
%%score { ( 1 4 ) | ( 2 3 ) }
L:1/8
Q:1/4=124
M:3/4
K:F
V:1 treble nm="Grand Piano"
V:4 treble 
V:2 bass 
V:3 bass 
V:1
 [CA]2 F2 B2 | [CA]6 | [A,F]2 E2 D2 | [A,C]6 | [A,F]2 E2 F2 | [DB]2 A2 F2 | [=B,F]2 D2 A2 | %7
w: W.~Stillman~Martin * *|||||||
 [B,G]6 | [CA]2 F2 B2 | [CA]6 | [CA]2 B2 c2 | [DB]6 | [Fd]2 c2 B2 |[M:4/4] [CA]2 [CAc]6 | %14
w: |||||||
[M:3/4] [DB]2 A2 G2 | [A,F]6 | [CEc]2 [B,EG]2 [Ed]2 | c6 | [^Fd]2 [DFA]2 [DAc]2 | [GB]6 | %20
w: ||||||
 [CEB]2 A2 G2 | c4 d2 | e2 G2 d2 |[M:7/8] c2- [Bc-]2 [Gc]3 |[M:3/4] A2 F2 B2 | A6 | c2 A2 F2 | f6 | %28
w: ||||||||
 f2 [Fe]2 [Fd]2 |[M:4/4] [Fc]2 [=B,F]6 | %30
w: ||
[M:3/4] [FA]2 [FA]2 [EG]2[Q:1/4=122][Q:1/4=120][Q:1/4=118][Q:1/4=116][Q:1/4=114][Q:1/4=112][Q:1/4=110][Q:1/4=109][Q:1/4=107][Q:1/4=105][Q:1/4=103][Q:1/4=101][Q:1/4=99][Q:1/4=97][Q:1/4=95] | %31
w: |
 [CF]6 |] %32
w: |
V:2
 z2 A,2 D2 | F,,6 | z2 C2 B,2 | F,,6 | z2 G,2 A,2 | z2 C2 A,2 | z2 =B,2 B,2 | C,6 | z2 A,2 D2 | %9
 F,,6 | z2 D2 _E2 | B,,6 | z2 E2 D2 |[M:4/4] z2 G,6 |[M:3/4] z2 C2 B,2 | F,,6 | C,2 C,2 [C,B,]2 | %17
 [A,F]2 C2 A,2 | [D,A,]2 D,2 ^F,2 | G,2 F,2 E,2 | C,[K:treble]D [CE]2 [B,CE]2 | [A,CF]4 [_A,CF]2 | %22
 G2 E2 [G,=B,F]2 |[M:7/8][K:bass] G,- G,3 z z2 |[M:3/4] [F,CF]2 [F,A,C]2 [F,DF]2 | [F,CF]6 | %26
 [A,_EF]2 [A,EF]2 [A,E]2 | [B,DF]6 | [B,,DF]2 [B,,C]2 [B,,B,]2 |[M:4/4] [C,A,]2 [D,G,]6 | %30
[M:3/4] [C,C]2 [C,C]2 [C,B,]2 | [F,A,]6 |] %32
V:3
 F,,4 z2 | x6 | F,,4 z2 | x6 | F,,4 z2 | F,,4 z2 | G,,6 | x6 | F,,4 z2 | x6 | F,,4 z2 | x6 | %12
 B,,4 z2 |[M:4/4] F,,8 |[M:3/4] C,6 | x6 | x6 | F,6 | x6 | x6 | x[K:treble] x5 | x6 | [G,C]4 z2 | %23
[M:7/8][K:bass] C,- C,3- [C,B,]2- [C,B,-]/B,/ |[M:3/4] x6 | x6 | x6 | x6 | x6 |[M:4/4] x8 | %30
[M:3/4] x6 | x6 |] %32
V:4
 x6 | x6 | x6 | x6 | x6 | x6 | x6 | x6 | x6 | x6 | x6 | x6 | x6 |[M:4/4] x8 |[M:3/4] x6 | x6 | x6 | %17
 z2 A2 F2 | x6 | D4 C2 | x6 | x6 | x6 |[M:7/8] E2 z z z z2 |[M:3/4] x6 | x6 | x6 | x6 | x6 | %29
[M:4/4] x8 |[M:3/4] x6 | x6 |] %32

